svgs/solid/message-medical.svg

<svg xmlns="http://www.w3.org/2000/svg" viewBox="0 0 512 512"><!--! Font Awesome Pro 6.6.0 by @fontawesome - https://fontawesome.com License - https://fontawesome.com/license (Commercial License) Copyright 2024 Fonticons, Inc. --><path d="M0 64C0 28.7 28.7 0 64 0L448 0c35.3 0 64 28.7 64 64l0 288c0 35.3-28.7 64-64 64l-138.7 0L185.6 508.8c-4.8 3.6-11.3 4.2-16.8 1.5s-8.8-8.2-8.8-14.3l0-80-96 0c-35.3 0-64-28.7-64-64L0 64zm224 64l0 48-48 0c-8.8 0-16 7.2-16 16l0 32c0 8.8 7.2 16 16 16l48 0 0 48c0 8.8 7.2 16 16 16l32 0c8.8 0 16-7.2 16-16l0-48 48 0c8.8 0 16-7.2 16-16l0-32c0-8.8-7.2-16-16-16l-48 0 0-48c0-8.8-7.2-16-16-16l-32 0c-8.8 0-16 7.2-16 16z"/></svg>

<svg xmlns="http://www.w3.org/2000/svg" viewBox="0 0 512 512"><!--! Font Awesome Pro 6.4.0 by @fontawesome - https://fontawesome.com License - https://fontawesome.com/license (Commercial License) Copyright 2023 Fonticons, Inc. --><path d="M0 64C0 28.7 28.7 0 64 0H448c35.3 0 64 28.7 64 64V352c0 35.3-28.7 64-64 64H309.3L185.6 508.8c-4.8 3.6-11.3 4.2-16.8 1.5s-8.8-8.2-8.8-14.3V416H64c-35.3 0-64-28.7-64-64V64zm224 64v48H176c-8.8 0-16 7.2-16 16v32c0 8.8 7.2 16 16 16h48v48c0 8.8 7.2 16 16 16h32c8.8 0 16-7.2 16-16V240h48c8.8 0 16-7.2 16-16V192c0-8.8-7.2-16-16-16H288V128c0-8.8-7.2-16-16-16H240c-8.8 0-16 7.2-16 16z"/></svg>
